X: 3301
T: Bell Piano, The
R: strathspey
M: 4/4
K: Amajor
C>E D/C/B,/A,/ C<E E2|c>Ae>A c<e e2|f>e f/g/a/c/ e>Ac>A|B>c d/c/B/A/ A/G/F/E/ D2|
C>E D/C/B,/A,/ C<E E2|c>Ae>A c<e e2|f>e f/g/a/c/ e>Ac>A|F>B A/G/F/E/ A2 A z||
c<ee>e f/e/f/g/ a2|e>Ac>a c<e e2|d>bc>a B>gA>c|d>B d/c/B/A/ A/G/F/E/ D2|
C>E D/C/B,/A,/ C<E E2|c>Ae>A c<e e2|f>e f/g/a/c/ e>Ac>A|F>B A/G/F/E/ A2 A z||

